24x24/apps/dead-island.svg

<svg xmlns="http://www.w3.org/2000/svg" width="24" height="24" version="1">
 <rect style="opacity:0.2" width="20" height="20" x="2" y="2.5" rx="1" ry="1"/>
 <rect style="fill:#f4f4f7" width="20" height="20" x="2" y="2" rx="1" ry="1"/>
 <path style="opacity:0.2;fill:#f4f4f7" d="M 2,3.5 V 3 C 2,2.446 2.446,2 3,2 h 18 c 0.554,0 1,0.446 1,1 v 0.5 c 0,-0.554 -0.446,-1 -1,-1 H 3 c -0.554,0 -1,0.446 -1,1 z"/>
 <path style="opacity:0.1" d="M 12.697712,20.450903 C 12.286969,20.16162 11.799295,20.060616 11.906049,19.40057 11.384516,18.862864 11.679585,18.065205 11.572324,17.352752 11.322981,16.42455 11.10522,15.485096 10.907874,14.543839 c -0.557245,-0.472068 0.386445,-1.64827 -0.285783,-1.789619 0.05184,-0.310468 -0.152103,-0.462372 0.01529,-0.84981 -0.214283,-0.299625 0.18737,-0.39001 -0.199452,-0.62325 -0.09454,-0.500432 -0.913644,0.609864 -1.0336325,0.302284 -0.3136325,0.14587 -0.630115,-0.0339 -0.968206,0.168986 -0.4026435,-0.118505 -0.796044,0.06696 -1.2498195,0.06654 -0.297592,0.0536 -0.563153,0.545769 -0.7141225,0.361929 -0.3771755,0.488954 -0.73102,0.217992 -1.209692,0.149383 C 4.5558434,11.902102 5.487436,11.325391 5.599612,10.88163 6.3507115,10.347775 7.330046,10.50155 8.1870145,10.6437 8.8204055,10.770699 9.663436,10.55596 10.208083,10.425364 9.8373545,10.254879 9.201364,10.159794 8.779206,9.8593565 8.488656,9.7826835 8.322098,9.70868 8.2862305,9.47061 7.954761,9.610862 7.2944035,9.7239715 7.8165965,9.214488 7.884126,8.8745835 7.308339,9.6815875 7.070812,9.7084315 6.8641775,10.039419 6.87074,9.1957695 6.6201805,9.8226 6.1698025,10.054774 7.192574,9.0779425 6.4758115,9.2440045 6.182239,9.4564655 6.2139195,9.0151425 5.935986,9.177407 5.608473,8.4176375 6.730503,8.171706 7.0123245,8.081392 7.2283895,7.628875 8.158356,7.9733255 8.619687,7.9153605 9.0038915,7.741903 8.656482,7.1983265 9.1441415,7.5633315 9.3882305,7.4116815 8.201248,6.1121905 8.966426,6.760879 9.0325375,6.9442345 9.5931485,7.6900845 9.415084,7.288723 8.976661,7.024223 9.8044065,6.774523 9.11132,6.6459235 8.920265,6.377556 8.3556535,5.9092405 9.06242,6.0080085 c 0.653624,-0.050342 1.421541,0.071929 1.97222,0.4635955 0.292159,0.2321545 0.5903,0.465607 0.826907,0.306555 -0.287733,0.195845 -0.662044,0.8564305 -0.03863,0.5161625 0.282943,-0.122616 0.566955,-0.37826 0.703678,-0.274574 0.180702,-0.162574 0.418631,0.5289985 0.803077,0.130588 0.341805,-0.1224905 1.248573,-0.276792 1.321834,-0.069588 -0.460738,-0.050332 -0.639867,0.43657 -0.194322,0.2181555 0.378646,-0.118353 0.903434,-0.04065 0.623014,0.2444175 0.434043,-0.124693 0.815937,-0.2493955 1.193027,0.024745 -0.01671,0.327868 1.189914,0.7357865 0.29202,0.6800475 -0.674002,-0.2121155 -1.236471,3.76e-4 -1.840508,0.316222 -0.258001,0.224003 -0.102294,1.1405715 0.499518,0.7632335 0.596117,-0.2305175 1.510686,-0.095482 1.665079,0.425831 0.785231,-0.2256185 0.826089,1.7697325 0.157453,0.7051215 0.20624,0.35692 0.08849,0.674145 -0.256462,0.279276 -0.415123,-0.225194 -1.036119,-0.07605 -1.505018,-0.347412 -0.243843,0.206368 -0.508332,0.0075 -0.687063,0.08643 -0.171595,-0.150909 0.159148,0.627247 -0.205913,0.03635 -0.273723,0.307141 -0.583367,0.352446 -0.854497,0.203685 -0.194636,0.244279 -0.880366,0.223739 -1.017405,0.03624 -0.218687,0.15428 -0.982477,-0.100875 -0.738475,0.457153 0.65737,0.703303 -0.575362,1.172015 -0.363617,2.022121 0.0096,0.513579 0.548173,1.017393 0.08781,1.380027 0.07846,0.379021 0.276138,0.796208 -0.17105,0.711109 -0.09777,0.431648 0.145909,0.272715 0.298901,0.3201 0.173416,0.05371 0.237098,0.08355 -0.151342,0.191766 -0.208666,0.533728 0.598177,-0.228657 0.478229,0.47151 0.179914,0.319859 0.945586,1.184106 1.017424,0.30738 -0.211346,-0.790779 0.0994,-1.953448 0.126393,-2.727399 -0.328028,0.152916 -0.693357,0.186933 -0.308429,-0.238184 0.128039,-0.181514 0.205793,-0.342046 0.361435,-0.522067 0.06887,-0.07966 0.196544,-0.07436 0.280502,-0.149948 0.07379,-0.06643 0.138652,-0.313567 0.202018,-0.388628 0.621969,-0.337756 0.63072,1.941764 0.855499,2.650188 0.125097,0.444726 -0.09946,0.704528 -0.192275,0.137751 -0.01681,-0.304879 -0.173516,-1.235871 -0.364386,-1.152872 -0.103826,0.674728 0.498894,1.79888 0.122213,2.400319 0.262475,0.743443 -0.04647,1.495516 -0.116078,2.232046 -0.192798,0.436671 -0.908689,0.759155 -0.879046,1.238412 -0.362074,-0.08626 0.0821,0.589942 -0.368433,0.357036 z m 1.057843,-2.636041 c 0.228967,-0.268227 -0.06089,-1.34852 -0.251929,-1.379664 -0.07667,0.338305 -0.386839,0.822779 -0.443764,1.07974 -0.0289,0.130481 0.231956,0.285033 0.416361,0.511684 0.08509,-0.0465 0.175548,-0.166994 0.279332,-0.21176 z m -1.987357,-1.685291 c -0.09816,-0.147455 -0.0859,0.142466 0,0 z M 13.819849,9.5648985 C 14.170253,9.5356635 14.868078,9.34781 14.2476,9.255753 13.940367,8.749061 12.891429,9.9262495 13.819849,9.5648985 Z M 9.2439305,8.2355335 c 0.3074245,0.2690255 0.1607125,-0.541191 -0.114909,-1.7e-4 -0.021065,0.251537 -0.023705,0.429943 0.114909,1.7e-4 z M 10.697461,7.804607 c -0.199155,-0.197193 0.02963,0.317759 -1e-6,-5e-7 z m 4.389201,-0.088743 c 0.356705,-0.330021 -0.779774,0.34563 0,1.5e-6 z M 9.4710215,7.658578 c -0.225887,-0.142796 0.1283515,0.184393 0,0 z M 10.498072,7.3603455 c -0.04025,-0.3030805 -0.439895,-0.694479 -0.120373,-0.180444 0.05284,0.1493345 0.287599,0.5783405 0.120373,0.180444 z m 3.53012,-0.075116 c -0.198684,-0.192483 -0.145178,0.441121 0,0 z m 4.077494,0.468086 C 18.287566,7.383364 16.939605,7.0683485 17.86365,7.111113 c 0.167647,0.097898 0.349287,0.189476 0.500123,0.2628765 0.07023,0.011155 0.167291,-0.059934 0.233561,-0.04779 0.206769,0.037885 0.376972,0.093573 0.402665,0.2482635 -0.372025,-0.08342 -0.468904,0.09073 -0.555934,0.2625485 -0.115424,-0.013335 -0.245614,0.005 -0.338379,-0.083695 z M 6.8269295,6.4550515 c -1.0312735,-0.632147 0.8283145,0.23371 0,0 z M 6.309584,6.4306215 C 6.1182185,6.232326 5.7577565,6.2701325 6.266199,6.18013 6.6032055,6.0481545 6.764473,6.4746825 6.309584,6.4306215 Z M 7.8769985,5.641188 C 7.8967035,5.3197568 6.850934,4.9494086 7.615077,5.1880901 7.979132,5.625972 9.0992155,4.4860644 8.391844,5.2049751 8.1800435,5.3505797 8.2425535,5.796034 7.8769985,5.641188 Z M 12.588357,5.1338692 C 12.361745,5.1004041 12.11651,5.0775206 11.9257,5.0489071 11.82847,5.0343271 11.98572,5.0321901 11.88147,4.8766119 11.86195,4.8474829 11.78628,4.8119919 11.744746,4.7778599 11.62338,4.7101559 11.501623,4.572408 11.507311,4.5091661 c -0.09964,-0.0541 0.329443,0.1410258 0.777313,0.3230489 0.359395,0.1460657 0.793505,0.2525717 0.930412,0.3306006 -0.187254,0.012788 -0.444859,0.019405 -0.626704,-0.028946 z M 8.177336,5.3697568 C 8.3485725,5.0901296 9.288662,4.5108294 8.6419195,5.0769582 8.491825,5.1708551 8.3492315,5.3301457 8.177336,5.3697568 Z"/>
 <path style="fill:#ca1010" d="m 12.697712,19.950912 c -0.410743,-0.289283 -0.898417,-0.390287 -0.791663,-1.050333 -0.521533,-0.537706 -0.226464,-1.335365 -0.333725,-2.047818 -0.249343,-0.928202 -0.467104,-1.867656 -0.66445,-2.808913 -0.557245,-0.472068 0.386445,-1.64827 -0.285783,-1.789619 0.05184,-0.310468 -0.152103,-0.462372 0.01529,-0.84981 -0.214283,-0.299625 0.18737,-0.39001 -0.199452,-0.62325 -0.09454,-0.500432 -0.913644,0.609864 -1.0336325,0.302284 -0.3136325,0.14587 -0.630115,-0.0339 -0.968206,0.168986 -0.4026435,-0.118505 -0.796044,0.06696 -1.2498195,0.06654 -0.297592,0.0536 -0.563153,0.545769 -0.7141225,0.361929 C 6.094973,12.169862 5.7411285,11.8989 5.2624565,11.830291 4.5558434,11.402111 5.487436,10.8254 5.599612,10.381639 6.3507115,9.8477837 7.330046,10.001559 8.1870145,10.143709 8.8204055,10.270708 9.663436,10.05597 10.208083,9.9253725 9.8373545,9.7548875 9.201364,9.6598025 8.779206,9.359365 8.488656,9.282692 8.322098,9.2086885 8.2862305,8.9706185 7.954761,9.1108705 7.2944035,9.22398 7.8165965,8.7144965 7.884126,8.374592 7.308339,9.181596 7.070812,9.20844 6.8641775,9.539428 6.87074,8.695778 6.6201805,9.3226085 6.1698025,9.554783 7.192574,8.577951 6.4758115,8.744013 6.182239,8.956474 6.2139195,8.515151 5.935986,8.6774155 5.608473,7.917646 6.730503,7.6717145 7.0123245,7.5814005 7.2283895,7.1288835 8.158356,7.473334 8.619687,7.415369 9.0038915,7.2419115 8.656482,6.698335 9.1441415,7.06334 9.3882305,6.91169 8.201248,5.612199 8.966426,6.2608875 9.0325375,6.444243 9.5931485,7.190093 9.415084,6.7887315 8.976661,6.5242315 9.8044065,6.2745315 9.11132,6.145932 8.920265,5.8775645 8.3556535,5.409249 9.06242,5.508017 c 0.653624,-0.050342 1.421541,0.071929 1.97222,0.4635955 0.292159,0.2321545 0.5903,0.465607 0.826907,0.306555 -0.287733,0.195845 -0.662044,0.8564305 -0.03863,0.5161625 0.282943,-0.122616 0.566955,-0.37826 0.703678,-0.274574 0.180702,-0.162574 0.418631,0.5289985 0.803077,0.130588 0.341805,-0.1224905 1.248573,-0.276792 1.321834,-0.069588 -0.460738,-0.050332 -0.639867,0.43657 -0.194322,0.2181555 0.378646,-0.118353 0.903434,-0.04065 0.623014,0.2444175 0.434043,-0.124693 0.815937,-0.2493955 1.193027,0.024745 -0.01671,0.327868 1.189914,0.7357865 0.29202,0.6800475 -0.674002,-0.2121155 -1.236471,3.76e-4 -1.840508,0.316222 -0.258001,0.224003 -0.102294,1.1405715 0.499518,0.7632335 0.596117,-0.2305175 1.510686,-0.095482 1.665079,0.425831 0.785231,-0.2256185 0.826089,1.769733 0.157453,0.705122 0.20624,0.35692 0.08849,0.674145 -0.256462,0.279276 -0.415123,-0.225194 -1.036119,-0.07605 -1.505018,-0.3474125 -0.243843,0.2063685 -0.508332,0.00746 -0.687063,0.086428 -0.171595,-0.1509095 0.159148,0.6272475 -0.205913,0.036345 -0.273723,0.307141 -0.583367,0.352446 -0.854497,0.203685 -0.194636,0.244279 -0.880366,0.223739 -1.017405,0.03624 -0.218687,0.15428 -0.982477,-0.100875 -0.738475,0.457153 0.65737,0.703303 -0.575362,1.172015 -0.363617,2.022121 0.0096,0.513579 0.548173,1.017393 0.08781,1.380027 0.07846,0.379021 0.276138,0.796208 -0.17105,0.711109 -0.09777,0.431648 0.145909,0.272715 0.298901,0.3201 0.173416,0.05371 0.237098,0.08355 -0.151342,0.191766 -0.208666,0.533728 0.598177,-0.228657 0.478229,0.47151 0.179914,0.319859 0.945586,1.184106 1.017424,0.30738 -0.211346,-0.790779 0.0994,-1.953448 0.126393,-2.727399 -0.328028,0.152916 -0.693357,0.186933 -0.308429,-0.238184 0.128039,-0.181514 0.205793,-0.342046 0.361435,-0.522067 0.06887,-0.07966 0.196544,-0.07436 0.280502,-0.149948 0.07379,-0.06643 0.138652,-0.313567 0.202018,-0.388628 0.621969,-0.337756 0.63072,1.941764 0.855499,2.650188 0.125097,0.444726 -0.09946,0.704528 -0.192275,0.137751 -0.01681,-0.304879 -0.173516,-1.235871 -0.364386,-1.152872 -0.103826,0.674728 0.498894,1.79888 0.122213,2.400319 0.262475,0.743443 -0.04647,1.495516 -0.116078,2.232046 -0.192798,0.436671 -0.908689,0.759155 -0.879046,1.238412 -0.362074,-0.08626 0.0821,0.589942 -0.368433,0.357036 z m 1.057843,-2.636041 c 0.228967,-0.268227 -0.06089,-1.34852 -0.251929,-1.379664 -0.07667,0.338305 -0.386839,0.822779 -0.443764,1.07974 -0.0289,0.130481 0.231956,0.285033 0.416361,0.511684 0.08509,-0.0465 0.175548,-0.166994 0.279331,-0.21176 z M 11.768198,15.62958 c -0.09816,-0.147455 -0.0859,0.142466 0,0 z M 13.819849,9.064907 C 14.170253,9.035672 14.868078,8.8478185 14.2476,8.7557615 13.940367,8.2490695 12.891429,9.426258 13.819849,9.064907 Z M 9.2439305,7.735542 c 0.3074245,0.2690255 0.1607125,-0.541191 -0.114909,-1.7e-4 -0.021065,0.251537 -0.023705,0.429943 0.114909,1.7e-4 z M 10.697461,7.3046155 c -0.199155,-0.197193 0.02963,0.317759 -1e-6,-5e-7 z m 4.389201,-0.088743 c 0.356705,-0.330021 -0.779774,0.34563 0,1.5e-6 z M 9.4710215,7.1585865 c -0.225887,-0.142796 0.1283515,0.184393 0,0 z M 10.498072,6.860354 C 10.457822,6.5572735 10.058177,6.165875 10.377699,6.67991 c 0.05284,0.1493345 0.287599,0.5783405 0.120373,0.180444 z m 3.53012,-0.075116 c -0.198684,-0.192483 -0.145178,0.441121 0,0 z m 4.077494,0.468086 c 0.18188,-0.3699515 -1.166081,-0.684967 -0.242036,-0.6422025 0.167647,0.097898 0.349287,0.189476 0.500123,0.2628765 0.07023,0.011155 0.167291,-0.059934 0.233561,-0.04779 0.206769,0.037885 0.376972,0.093573 0.402665,0.2482635 -0.372025,-0.08342 -0.468904,0.09073 -0.555934,0.2625485 -0.115424,-0.013335 -0.245614,0.005 -0.338379,-0.083695 z M 6.8269295,5.95506 c -1.0312735,-0.632147 0.8283145,0.23371 0,0 z M 6.309584,5.93063 C 6.1182185,5.7323345 5.7577565,5.770141 6.266199,5.6801385 6.6032055,5.548163 6.764473,5.974691 6.309584,5.93063 Z M 7.8769985,5.1411965 C 7.8967035,4.8197653 6.850934,4.4494171 7.615077,4.6880986 7.979132,5.1259805 9.0992155,3.9860729 8.391844,4.7049836 8.1800435,4.8505882 8.2425535,5.2960425 7.8769985,5.1411965 Z M 12.588357,4.6338777 C 12.361745,4.6004126 12.11651,4.5775291 11.9257,4.5489156 11.82847,4.5343356 11.98572,4.5321986 11.88147,4.3766204 11.86195,4.3474914 11.78628,4.3120004 11.744746,4.2778684 11.62338,4.2101644 11.501623,4.0724165 11.507311,4.0091746 c -0.09964,-0.0541 0.329443,0.1410258 0.777313,0.3230489 0.359395,0.1460657 0.793505,0.2525717 0.930412,0.3306006 -0.187254,0.012788 -0.444859,0.019405 -0.626704,-0.028946 z M 8.177336,4.8697653 C 8.3485725,4.5901381 9.288662,4.0108379 8.6419195,4.5769667 8.491825,4.6708636 8.3492315,4.8301542 8.177336,4.8697653 Z"/>
</svg>

<svg xmlns="http://www.w3.org/2000/svg" width="24" height="24" version="1"><rect style="opacity:.2" width="20" height="20" x="2" y="2.5" rx="1" ry="1"/><rect style="fill:#f4f4f7" width="20" height="20" x="2" y="2" rx="1" ry="1"/><path style="opacity:.2;fill:#f4f4f7" d="M2 3.5V3c0-.554.446-1 1-1h18c.554 0 1 .446 1 1v.5c0-.554-.446-1-1-1H3c-.554 0-1 .446-1 1z"/><path style="opacity:.1" d="M12.698 20.45c-.411-.288-.899-.39-.792-1.05-.521-.537-.226-1.335-.334-2.047a51.817 51.817 0 0 1-.664-2.81c-.557-.471.386-1.647-.286-1.789.052-.31-.152-.462.015-.85-.214-.3.188-.39-.2-.623-.094-.5-.913.61-1.033.302-.313.146-.63-.033-.968.17-.403-.12-.796.066-1.25.066-.297.054-.563.546-.714.362-.377.489-.73.218-1.21.15-.706-.429.225-1.006.338-1.45.75-.533 1.73-.38 2.587-.237.633.127 1.476-.088 2.021-.219-.37-.17-1.007-.265-1.429-.566-.29-.076-.457-.15-.493-.388-.331.14-.992.253-.47-.257.068-.34-.508.468-.745.494-.207.331-.2-.512-.45.115-.451.232.572-.745-.145-.579-.294.212-.262-.229-.54-.067-.328-.76.795-1.005 1.076-1.096.216-.452 1.146-.108 1.608-.166.384-.173.036-.717.524-.352.244-.151-.943-1.45-.178-.802.067.183.627.93.45.528-.44-.265.388-.514-.305-.643-.19-.268-.755-.737-.049-.638.654-.05 1.422.072 1.973.464.292.232.59.465.827.306-.288.196-.662.857-.04.516.284-.122.568-.378.705-.274.18-.163.418.529.803.13.341-.122 1.248-.276 1.322-.07-.461-.05-.64.437-.195.219.379-.118.904-.04.623.244.434-.124.816-.25 1.193.025-.016.328 1.19.736.292.68-.674-.212-1.236 0-1.84.316-.258.224-.103 1.14.5.764.595-.23 1.51-.096 1.664.425.786-.225.826 1.77.158.706.206.356.088.674-.257.279-.415-.225-1.036-.076-1.505-.348-.244.207-.508.008-.687.087-.171-.151.16.627-.206.036-.273.307-.583.353-.854.204-.195.244-.88.224-1.018.036-.218.154-.982-.1-.738.457.657.704-.575 1.172-.364 2.022.01.514.549 1.018.088 1.38.079.38.276.797-.17.712-.099.431.145.272.298.32.173.053.237.083-.151.191-.209.534.598-.228.478.472.18.32.945 1.184 1.017.307-.211-.79.1-1.953.127-2.727-.328.153-.694.187-.309-.238.128-.182.206-.342.362-.522.069-.08.196-.075.28-.15.074-.067.139-.314.202-.389.622-.338.63 1.942.856 2.65.125.445-.1.705-.193.138-.016-.305-.173-1.236-.364-1.153-.104.675.499 1.799.122 2.4.263.744-.046 1.496-.116 2.232-.193.437-.908.76-.879 1.239-.362-.086.082.59-.368.357zm1.058-2.635c.229-.268-.061-1.349-.252-1.38-.077.339-.387.823-.444 1.08-.029.13.232.285.416.512.085-.047.176-.167.28-.212zm-1.988-1.685c-.098-.148-.086.142 0 0zm2.052-6.565c.35-.03 1.048-.217.428-.31-.308-.506-1.357.671-.428.31zm-4.576-1.33c.307.27.16-.54-.115 0-.021.252-.024.43.115 0zm1.453-.43c-.199-.198.03.317 0 0zm4.39-.09c.356-.33-.78.346 0 0zM9.47 7.66c-.226-.143.128.184 0 0zm1.027-.299c-.04-.303-.44-.694-.12-.18.053.15.287.578.12.18zm3.53-.075c-.198-.192-.145.441 0 0zm4.078.468c.182-.37-1.166-.685-.242-.642.167.098.349.19.5.263.07.011.167-.06.233-.048.207.038.377.094.403.248-.372-.083-.469.091-.556.263-.115-.013-.246.005-.338-.084zM6.826 6.455c-1.03-.632.83.234 0 0zm-.516-.024c-.192-.199-.552-.16-.044-.25.337-.133.498.294.044.25zm1.567-.79c.02-.321-1.026-.692-.262-.453.364.438 1.484-.702.777.017-.212.146-.15.591-.515.436zm4.711-.507c-.226-.034-.471-.056-.662-.085-.098-.015.06-.017-.045-.172-.02-.03-.095-.065-.136-.1-.122-.067-.243-.205-.238-.268-.1-.054.33.141.778.323.359.146.793.253.93.33-.187.014-.445.02-.627-.028zm-4.41.236c.17-.28 1.11-.86.464-.293-.15.094-.293.253-.465.293z"/><path style="fill:#ca1010" d="M12.698 19.95c-.411-.288-.899-.39-.792-1.05-.521-.537-.226-1.335-.334-2.047a51.817 51.817 0 0 1-.664-2.81c-.557-.471.386-1.647-.286-1.789.052-.31-.152-.462.015-.85-.214-.3.188-.39-.2-.623-.094-.5-.913.61-1.033.302-.313.146-.63-.033-.968.17-.403-.12-.796.066-1.25.066-.297.054-.563.546-.714.362-.377.489-.73.218-1.21.15-.706-.429.225-1.006.338-1.45.75-.533 1.73-.38 2.587-.237.633.127 1.476-.088 2.021-.219-.37-.17-1.007-.265-1.429-.566-.29-.076-.457-.15-.493-.388-.331.14-.992.253-.47-.257.068-.34-.508.468-.745.494-.207.331-.2-.512-.45.115-.451.232.572-.745-.145-.579-.294.212-.262-.229-.54-.067-.328-.76.795-1.005 1.076-1.096.216-.452 1.146-.108 1.608-.166.384-.173.036-.717.524-.352.244-.151-.943-1.45-.178-.802.067.183.627.93.45.528-.44-.265.388-.514-.305-.643-.19-.268-.755-.737-.049-.638.654-.05 1.422.072 1.973.464.292.232.59.465.827.306-.288.196-.662.857-.04.516.284-.122.568-.378.705-.274.18-.163.418.529.803.13.341-.122 1.248-.276 1.322-.07-.461-.05-.64.437-.195.219.379-.118.904-.04.623.244.434-.124.816-.25 1.193.025-.016.328 1.19.736.292.68-.674-.212-1.236 0-1.84.316-.258.224-.103 1.14.5.764.595-.23 1.51-.096 1.664.425.786-.225.826 1.77.158.706.206.356.088.674-.257.279-.415-.225-1.036-.076-1.505-.348-.244.207-.508.008-.687.087-.171-.151.16.627-.206.036-.273.307-.583.353-.854.204-.195.244-.88.224-1.018.036-.218.154-.982-.1-.738.457.657.704-.575 1.172-.364 2.022.01.514.549 1.018.088 1.38.079.38.276.797-.17.712-.099.431.145.272.298.32.173.053.237.083-.151.191-.209.534.598-.228.478.472.18.32.945 1.184 1.017.307-.211-.79.1-1.953.127-2.727-.328.153-.694.187-.309-.238.128-.182.206-.342.362-.522.069-.08.196-.075.28-.15.074-.067.139-.314.202-.389.622-.338.63 1.942.856 2.65.125.445-.1.705-.193.138-.016-.305-.173-1.236-.364-1.153-.104.675.499 1.799.122 2.4.263.744-.046 1.496-.116 2.232-.193.437-.908.76-.879 1.239-.362-.086.082.59-.368.357zm1.058-2.635c.229-.268-.061-1.349-.252-1.38-.077.339-.387.823-.444 1.08-.029.13.232.285.416.512.085-.047.176-.167.28-.212zm-1.988-1.685c-.098-.148-.086.142 0 0zm2.052-6.565c.35-.03 1.048-.217.428-.31-.308-.506-1.357.671-.428.31zm-4.576-1.33c.307.27.16-.54-.115 0-.021.252-.024.43.115 0zm1.453-.43c-.199-.198.03.317 0 0zm4.39-.09c.356-.33-.78.347 0 0zM9.47 7.16c-.226-.143.128.184 0 0zm1.027-.299c-.04-.303-.44-.694-.12-.18.053.15.287.578.12.18zm3.53-.075c-.198-.192-.145.441 0 0zm4.078.468c.182-.37-1.166-.685-.242-.642.167.098.349.19.5.263.07.011.167-.06.233-.048.207.038.377.094.403.248-.372-.083-.469.091-.556.263-.115-.013-.246.005-.338-.084zM6.826 5.955c-1.03-.632.83.234 0 0zm-.516-.024c-.192-.199-.552-.16-.044-.25.337-.133.498.294.044.25zm1.567-.79c.02-.321-1.026-.692-.262-.453.364.438 1.484-.702.777.017-.212.146-.15.591-.515.436zm4.711-.507c-.226-.034-.471-.056-.662-.085-.098-.015.06-.017-.045-.172-.02-.03-.095-.065-.136-.1-.122-.067-.243-.205-.238-.268-.1-.054.33.141.778.323.359.146.793.253.93.33-.187.014-.445.02-.627-.028zm-4.41.236c.17-.28 1.11-.86.464-.293-.15.094-.293.253-.465.293z"/></svg>
